src/Pure/16/symbolic/actions/flag-outline-thin-symbolic.svg

<?xml version="1.0" encoding="UTF-8" standalone="no"?>
<svg
   width="16"
   height="16"
   version="1.1"
   id="svg1"
   sodipodi:docname="flag-outline-thin-symbolic.svg"
   inkscape:version="1.4.2 (ebf0e940d0, 2025-05-08)"
   xmlns:inkscape="http://www.inkscape.org/namespaces/inkscape"
   xmlns:sodipodi="http://sodipodi.sourceforge.net/DTD/sodipodi-0.dtd"
   xmlns="http://www.w3.org/2000/svg"
   xmlns:svg="http://www.w3.org/2000/svg">
  <defs
   id="defs1">
   <style
    id="current-color-scheme"
    type="text/css">
    .ColorScheme-Text { color:#363636; }
   </style>
  </defs>
  <sodipodi:namedview
     id="namedview1"
     pagecolor="#ffffff"
     bordercolor="#000000"
     borderopacity="0.25"
     inkscape:showpageshadow="2"
     inkscape:pageopacity="0.0"
     inkscape:pagecheckerboard="0"
     inkscape:deskcolor="#d1d1d1"
     inkscape:zoom="49.6875"
     inkscape:cx="8"
     inkscape:cy="8"
     inkscape:window-width="1920"
     inkscape:window-height="1010"
     inkscape:window-x="0"
     inkscape:window-y="0"
     inkscape:window-maximized="1"
     inkscape:current-layer="svg1" />
  <path
     id="path1"
     style="fill:currentColor"
     class="ColorScheme-Text"
     d="M 2 1 L 2 15 L 3 15 L 3 9 A 0.99967 1 0 0 0 3.0039062 9 L 6.3847656 9 L 7.1054688 10.447266 A 0.99967 1 0 0 0 8.0019531 11 L 13 11 A 0.99967 1 0 0 0 14 10 L 14 4 A 0.99967 1 0 0 0 13 3 L 9.6171875 3 L 8.8964844 1.5527344 A 0.99967 1 0 0 0 8.0019531 1 L 3.0039062 1 A 0.99967 1 0 0 0 3 1 L 2 1 z M 3.0039062 2 L 8.0019531 2 L 9.0019531 4 L 13 4 L 13 10 L 8.0019531 10 L 7.0019531 8 L 3.0039062 8 L 3.0039062 2 z " />
</svg>

<svg width="16" height="16" version="1.1" xmlns="http://www.w3.org/2000/svg">
 <path d="m2 1v14h0.99967v-6a0.99967 1 0 0 0 0.0039 0h3.3817l0.72047 1.4473a0.99967 1 0 0 0 0.89619 0.55273h4.9984a0.99967 1 0 0 0 0.99968-1v-6a0.99967 1 0 0 0-0.99968-1h-3.3837l-0.72047-1.4473a0.99967 1 0 0 0-0.89424-0.55273h-4.9984a0.99967 1 0 0 0-0.0039 0zm1.0036 1h4.9984l0.99967 2h3.9987v6h-4.9984l-0.99967-2h-3.9987z" fill="#363636"/>
</svg>
